X: 3
T: Many a Wild Night
M: 2/4
L: 1/8
R: polka
K: Gmaj
|: B/c/ |\ 
dg gf/e/ | dB BA/B/ | ce ed | BG G/A/B/c/ |
dg/f/ gf/e/ | dB BA/B/ | ce ed | G2 G :|
|: D |\
GD/G/ Bd | cA A/B/A/G/ | FD/F/ Ac | BG G/c/B/A/ |
GD/G/ Bc | BA A>G | Ae ed | G2- G :|
